X: 43
T: No_135_Love_Song_(a).krn
N: Derived from No_135_Love_Song_(a).krn
%%abc-version 2.0
%%abcx-abcm2ps-target-version 5.9.1 (29 Sep 2008)
%%abc-creator hum2abc beta
%%abcx-conversion-date 2019/03/15 08:35:44
%%humdrum-veritas 2043070125
%%humdrum-veritas-data 725290658
%%linebreak <none>
%%barnumbers 0
L: 1/4
M: 3/4
K: C clef=bass
[K:clef=bass][M:3/4]z2F, | 
F,3/F/C ||  
[M:2/4]_B,2- | 
B,_B, | 
G,3/_B,//B,// | 
G,2 | 
F,2- | 
F,2 | 
zF, ||  
[M:3/4]F,2(F | 
(C2)F,) ||  
[M:2/4]_B,2- | 
B,3/G,//_B,// | 
G,2 | 
F,2- | 
F,2 | 
zF, ||  
[M:3/4]F2(F ||  
[M:2/4]C2) | 
zF, | 
_B,2- | 
B,3/G,//_B,// | 
G,2 | 
F,2- | 
F,2- | 
F,2 ||  
[M:3/4]F,zF, | 
F,3/F,/F ||  
[M:2/4]C2- | 
(CF,) | 
_B,2 | 
G,2- | 
G,2 | 
F,2- ||  
[M:3/4]F,zG, ||  
[M:2/4]_B,2- | 
B,3/G,//_B,// | 
G,2 | 
G,2 |]  



